X: 1435
T: Within A Mile of Clonbur
R: reel
Z: Bob Safranek, rjs@gsp.org
B: O'Neill's 1850 #1435
Z: Compacted via repeats and multiple endings [JC]
M: C|
L: 1/8
K: G
|: Bddg egdg | egdB (TBA) \
[1 A2 | Bddg edgd | BdAc (TBG) G z :|\
[2 Az | bgaf gedc | BdAc (BG) G2 |]
|: ((3efg) (dg) agbg | ((3efg) (dg) ea a2 |\
[1 ((3efg) dg agbg | edef ag g2 |\
[2 bgaf gedc | BdAc (BG) G2 |]
